src/main/webapp/scripts/pdfjs/v54530/web/images/messageBar_info.svg

<svg fill="none" height="16" viewBox="0 0 16 16" width="16" xmlns="http://www.w3.org/2000/svg"><path d="m7.625.5c-.98491 0-1.96018.193993-2.87013.5709-.90994.37691-1.73673.92936-2.43317 1.6258s-1.24889 1.52323-1.625796 2.43317c-.376911.90995-.570904 1.88522-.570904 2.87013s.193993 1.96018.570904 2.8701c.376906.91.929356 1.7368 1.625796 2.4332s1.52323 1.2489 2.43317 1.6258c.90995.3769 1.88522.5709 2.87013.5709 1.98912 0 3.8968-.7902 5.3033-2.1967s2.1967-3.31418 2.1967-5.3033-.7902-3.89678-2.1967-5.3033-3.31418-2.1967-5.3033-2.1967zm.625 10.875c0 .1658-.06585.3247-.18306.4419-.11721.1173-.27618.1831-.44194.1831s-.32473-.0658-.44194-.1831c-.11721-.1172-.18306-.2761-.18306-.4419v-4.437c0-.16576.06585-.32473.18306-.44194s.27618-.18306.44194-.18306.32473.06585.44194.18306.18306.27618.18306.44194zm0-6.375-.25.25h-.75l-.25-.25v-.75l.25-.25h.75l.25.25z" fill="#000"/></svg>

<svg width="16" height="16" viewBox="0 0 16 16" fill="none" xmlns="http://www.w3.org/2000/svg">
 <path d="M7.625 0.5C6.64009 0.5 5.66482 0.693993 4.75487 1.0709C3.84493 1.44781 3.01814 2.00026 2.3217 2.6967C1.62526 3.39314 1.07281 4.21993 0.695904 5.12987C0.318993 6.03982 0.125 7.01509 0.125 8C0.125 8.98491 0.318993 9.96018 0.695904 10.8701C1.07281 11.7801 1.62526 12.6069 2.3217 13.3033C3.01814 13.9997 3.84493 14.5522 4.75487 14.9291C5.66482 15.306 6.64009 15.5 7.625 15.5C9.61412 15.5 11.5218 14.7098 12.9283 13.3033C14.3348 11.8968 15.125 9.98912 15.125 8C15.125 6.01088 14.3348 4.10322 12.9283 2.6967C11.5218 1.29018 9.61412 0.5 7.625 0.5ZM8.25 11.375C8.25 11.5408 8.18415 11.6997 8.06694 11.8169C7.94973 11.9342 7.79076 12 7.625 12C7.45924 12 7.30027 11.9342 7.18306 11.8169C7.06585 11.6997 7 11.5408 7 11.375V6.938C7 6.77224 7.06585 6.61327 7.18306 6.49606C7.30027 6.37885 7.45924 6.313 7.625 6.313C7.79076 6.313 7.94973 6.37885 8.06694 6.49606C8.18415 6.61327 8.25 6.77224 8.25 6.938V11.375ZM8.25 5L8 5.25H7.25L7 5V4.25L7.25 4H8L8.25 4.25V5Z" fill="black" />
</svg>
